src/lib/packages/icons/src/assets/filled/exchange-horizontal.svg

<svg width="24" height="24" viewBox="0 0 24 24" fill="none" xmlns="http://www.w3.org/2000/svg">
<path d="M16 20C15.744 20 15.488 19.9021 15.293 19.7071C14.902 19.3161 14.902 18.684 15.293 18.293L18.5859 15H6.00001C5.44701 15 5.00001 14.552 5.00001 14C5.00001 13.448 5.44701 13 6.00001 13H21C21.404 13 21.7701 13.244 21.9241 13.617C22.0791 13.991 21.993 14.4211 21.707 14.7071L16.707 19.7071C16.512 19.9021 16.256 20 16 20ZM19 9.00004C19 8.44804 18.553 8.00004 18 8.00004H5.41407L8.70704 4.70707C9.09804 4.31607 9.09804 3.68401 8.70704 3.29301C8.31604 2.90201 7.68398 2.90201 7.29298 3.29301L2.29298 8.29301C2.00698 8.57901 1.92093 9.00909 2.07593 9.38309C2.22993 9.75709 2.59601 10 3.00001 10H18C18.553 10 19 9.55204 19 9.00004Z" fill="currentColor"/>
</svg>

<svg xmlns="http://www.w3.org/2000/svg" width="24" height="24" fill="none"><path fill="currentColor" d="M16 20a.999.999 0 0 1-.707-1.707L18.586 15H6a1 1 0 1 1 0-2h15a1 1 0 0 1 .707 1.707l-5 5A.997.997 0 0 1 16 20Zm3-11a1 1 0 0 0-1-1H5.414l3.293-3.293a.999.999 0 1 0-1.414-1.414l-5 5A1 1 0 0 0 3 10h15a1 1 0 0 0 1-1Z"/></svg>
